X: 19033
T: Inver Bank
R: jig
M: 6/8
K: Bminor
~f3 edc|~B3 cAG|~F3 cAG|F/G/AB cde|
~f3 edc|~B3 cAG|~F3 cAG|FGA Bzz:|
~F3 BFD|~F3 BFD|~F3 cFG|FcF dFc|
~F3 BFD|~F3 BFG|~F3 cAG|1 FGA BGE:|2 FGA Bzz||

